X: 14618
T: Gan Ainm
R: slide
M: 12/8
K: Dmajor
|:F2 F FED B2 A F3|E2 E E^DE F2 E D2 E|
F3 FED B2 A F2 A|EFE E^DE =D3- D3:|
|:d2 d dcd BB/c/d AFD|E2 E E^DE F2 E D3|
d2 d dcd B2 d A2 F|EFE E^DE =D3- D3:|

